frontend/public/svg/logos/uber.svg

<svg width="183" height="178" viewBox="0 0 183 178" fill="none" xmlns="http://www.w3.org/2000/svg">
<g clip-path="url(#clip0)">
<path d="M115.022 3.44492C102.935 0.527495 89.9368 -0.0551994 75.2847 1.66178C58.8765 3.58419 44.9824 9.4971 32.8106 19.7393C23.9367 27.1307 16.2007 35.7895 9.85192 45.4368C2.69787 56.4291 -0.0587265 69.1065 0.641586 87.82C-0.534572 100.327 2.25817 113.721 9.6925 131.245C15.5339 145.016 23.3599 153.901 34.3175 159.206C35.8126 159.928 37.302 160.667 38.7912 161.405C42.4766 163.231 46.2873 165.118 50.1406 166.754C66.665 173.777 81.4845 177.202 95.731 177.201C100.835 177.202 105.93 176.758 110.958 175.876C136.165 171.464 155.476 158.913 168.355 138.571C175.181 127.785 179.299 115.418 181.307 99.6498C184.329 75.9016 177.914 53.2066 162.237 32.1946C151.612 17.9501 136.169 8.54666 115.022 3.44492ZM68.4805 110.941V67.3226C85.1646 66.4175 100.767 67.2851 113.92 68.2828L111.795 110.941H68.4805ZM14.0742 94.4346C19.9852 94.4096 25.9939 94.3368 31.8051 94.2652C37.4686 94.1957 43.3251 94.1235 49.0844 94.0972C49.5222 94.0972 49.9627 94.0887 50.4031 94.0828C53.0573 94.0414 55.7962 94.0053 58.4104 94.9288C58.4353 95.1336 58.4629 95.3331 58.4911 95.5274C58.5908 96.0754 58.6308 96.6333 58.61 97.1905C58.3383 100.346 58.0303 103.552 57.7337 106.652C57.5443 108.634 57.3568 110.617 57.1713 112.599C56.8647 115.932 57.2934 118.023 58.5614 119.379C59.7035 120.602 61.5386 121.178 64.3136 121.178C64.4803 121.178 64.6509 121.178 64.8242 121.172L80.7999 120.795C92.0765 120.53 103.352 120.259 114.628 119.984C119.734 119.857 121.14 118.492 121.472 113.351C121.662 110.404 121.808 107.406 121.949 104.509C122.108 101.238 122.273 97.8561 122.501 94.537L122.775 90.4965C123.294 82.8029 123.83 74.8488 124.651 67.062C125.006 63.7015 124.958 61.1424 123.575 59.5717C122.165 57.9709 119.571 57.5929 116.104 57.5188C111.938 57.4289 107.7 57.2842 103.603 57.1451C99.5404 57.0059 95.3398 56.8629 91.2055 56.773L89.734 56.741C82.4834 56.5815 74.9868 56.4168 67.6154 56.5481C61.6029 56.6557 60.4779 58.5221 60.151 64.0747C59.859 69.0317 59.55 73.9857 59.2244 79.2003L58.8199 85.6974C58.2574 85.763 57.7279 85.8339 57.2219 85.8989C55.9007 86.0702 54.7592 86.2185 53.6237 86.2513C49.1928 86.3826 44.6844 86.4745 40.3244 86.5651C37.8027 86.6176 35.2813 86.6721 32.7601 86.7292C31.0944 86.7685 29.4284 86.806 27.7621 86.8414C22.3388 86.9615 16.7297 87.0849 11.2138 87.2943C10.383 87.3081 9.55421 87.3802 8.73346 87.5102C8.74133 87.182 8.7414 86.8486 8.75256 86.5185C8.92321 84.6 9.06753 82.6776 9.21193 80.7552C9.53156 76.5008 9.86249 72.1014 10.4794 67.8253C11.7554 59.0018 14.6039 52.0671 19.189 46.6254C24.2967 40.5628 30.3015 33.5833 36.9371 27.4701C46.5741 18.5905 58.3534 12.988 71.9492 10.8156C94.7721 7.16828 114.558 9.92365 132.432 19.2371C148.044 27.3757 159.166 39.5069 165.489 55.303C165.802 56.0845 166.117 56.8652 166.433 57.6453C169.415 65.0173 172.498 72.6402 172.834 80.828C173.745 102.99 170.256 119.038 161.523 132.864C150.309 150.62 133.249 161.488 110.818 165.167C85.4061 169.335 60.0014 163.283 33.1532 146.665C26.8334 142.753 21.8596 136.885 18.3718 129.22C12.619 116.58 9.52914 105.211 8.85048 94.0224C10.582 94.2633 12.3263 94.4004 14.0742 94.4346Z" fill="black"/>
</g>
<defs>
<clipPath id="clip0">
<rect width="182.462" height="177.211" fill="white" transform="translate(0.00732422 0.368164)"/>
</clipPath>
</defs>
</svg>

<svg xmlns="http://www.w3.org/2000/svg" width="183" height="178" fill="none" viewBox="0 0 183 178"><g clip-path="url(#a)"><path fill="#000" d="M115.022 3.445C102.935.527 89.937-.055 75.285 1.662 58.877 3.584 44.982 9.497 32.81 19.739A117.5 117.5 0 0 0 9.85 45.437C2.699 56.429-.058 69.107.642 87.82c-1.176 12.507 1.617 25.901 9.052 43.425 5.84 13.771 13.667 22.656 24.625 27.961 1.495.722 2.984 1.461 4.473 2.199 3.686 1.826 7.496 3.713 11.35 5.349 16.524 7.023 31.344 10.448 45.59 10.447a88 88 0 0 0 15.227-1.325c25.207-4.412 44.518-16.963 57.397-37.305 6.826-10.786 10.944-23.153 12.952-38.921 3.022-23.748-3.393-46.443-19.07-67.455-10.625-14.245-26.068-23.648-47.215-28.75M68.481 110.94V67.323c16.684-.905 32.286-.038 45.439.96l-2.125 42.658zM14.074 94.435a2204 2204 0 0 0 17.731-.17c5.664-.07 11.52-.141 17.28-.168.437 0 .878-.008 1.318-.014 2.654-.042 5.393-.078 8.007.846q.038.307.081.598c.1.548.14 1.106.119 1.663-.272 3.156-.58 6.362-.876 9.462q-.284 2.974-.563 5.947c-.306 3.333.122 5.424 1.39 6.78 1.142 1.223 2.978 1.799 5.753 1.799q.25.001.51-.006l15.976-.377q16.914-.398 33.828-.811c5.106-.127 6.512-1.492 6.844-6.633.19-2.947.336-5.945.477-8.842.159-3.271.324-6.653.552-9.972l.274-4.04c.519-7.694 1.055-15.648 1.876-23.435.355-3.36.307-5.92-1.076-7.49-1.41-1.601-4.004-1.98-7.471-2.053-4.166-.09-8.404-.235-12.501-.374-4.063-.14-8.263-.282-12.397-.372l-1.472-.032c-7.25-.16-14.747-.324-22.119-.193-6.012.108-7.137 1.974-7.464 7.527-.292 4.957-.601 9.91-.927 15.125l-.404 6.497c-.563.066-1.092.137-1.598.202-1.321.171-2.463.32-3.598.352-4.431.132-8.94.224-13.3.314q-3.782.079-7.564.164-2.499.06-4.998.112c-5.423.12-11.032.244-16.548.453q-1.248.021-2.48.216c.007-.328.007-.661.019-.992.17-1.918.315-3.84.459-5.763.32-4.254.65-8.654 1.267-12.93 1.276-8.823 4.125-15.758 8.71-21.2 5.108-6.062 11.113-13.042 17.748-19.155 9.637-8.88 21.416-14.482 35.012-16.654 22.823-3.648 42.609-.892 60.483 8.421 15.612 8.139 26.734 20.27 33.057 36.066q.47 1.172.944 2.342c2.982 7.372 6.065 14.995 6.401 23.183.911 22.162-2.578 38.21-11.311 52.036-11.214 17.756-28.274 28.624-50.705 32.303-25.412 4.168-50.817-1.884-77.665-18.502-6.32-3.912-11.293-9.78-14.781-17.445-5.753-12.64-8.843-24.009-9.522-35.198a44 44 0 0 0 5.224.413"/></g><defs><clipPath id="a"><path fill="#fff" d="M.007.368H182.47V177.58H.007z"/></clipPath></defs></svg>
